X:1
T:Dog in the Park Harmony 1
C:copyright 1998 Jim Thompson
N:To be played with Kaubells tune ``Dog in the Park.'' In both of these, the second endings on B2 are played only the last time through.
E:26                   % note spacing
M:6/8
K:GMix
|: g3 b3|a6|b6|d'6|
g3 b3|a6|b6|[1 b2a g3:|2 b2a gab||
K:G
^g3e3|^c3e3|^g3e3|^cABcde|
f3d3|B3d3|f3d3|BGABcd|
e^gbe'3|^c'3e'3|^g3e'3|^c'abc'd'e'|
f'3d'3|b3g3|[1 f3e3|=f3^f3:|2 f3=f3|e6|]
\bigskip
\bigskip
